svg/led_strip.svg

<svg xmlns="http://www.w3.org/2000/svg" viewBox="0 0 24 24"><path d="M2.81 8.46 14.83 20.5l.71-.72 1.41 1.41 1.41-1.41-1.41-1.42 1.41-1.41 1.42 1.41 1.41-1.41-1.41-1.41.72-.71L8.46 2.81zm2.83 0 2.82-2.82 9.2 9.19-2.83 2.83zm1.41 0 1.41 1.42 1.42-1.42-1.42-1.41zm2.12 2.13L10.59 12 12 10.59l-1.41-1.42zm2.12 2.12 1.42 1.41 1.41-1.41-1.41-1.42zm2.12 2.12 1.42 1.41 1.41-1.41-1.41-1.42z"/></svg>

<?xml version="1.0" encoding="UTF-8"?><!DOCTYPE svg PUBLIC "-//W3C//DTD SVG 1.1//EN" "http://www.w3.org/Graphics/SVG/1.1/DTD/svg11.dtd"><svg xmlns="http://www.w3.org/2000/svg" xmlns:xlink="http://www.w3.org/1999/xlink" version="1.1" id="mdi-led-strip" width="24" height="24" viewBox="0 0 24 24"><path d="M2.81,8.46L14.83,20.5L15.54,19.78L16.95,21.19L18.36,19.78L16.95,18.36L18.36,16.95L19.78,18.36L21.19,16.95L19.78,15.54L20.5,14.83L8.46,2.81L2.81,8.46M5.64,8.46L8.46,5.64L17.66,14.83L14.83,17.66L5.64,8.46M7.05,8.46L8.46,9.88L9.88,8.46L8.46,7.05L7.05,8.46M9.17,10.59L10.59,12L12,10.59L10.59,9.17L9.17,10.59M11.29,12.71L12.71,14.12L14.12,12.71L12.71,11.29L11.29,12.71M13.41,14.83L14.83,16.24L16.24,14.83L14.83,13.41L13.41,14.83Z" /></svg>
